images/wallpaper.svg

<?xml version="1.0" encoding="utf-8"?>
<!-- Generated by IcoMoon.io -->
<!DOCTYPE svg PUBLIC "-//W3C//DTD SVG 1.1//EN" "http://www.w3.org/Graphics/SVG/1.1/DTD/svg11.dtd">
<svg version="1.1" xmlns="http://www.w3.org/2000/svg" xmlns:xlink="http://www.w3.org/1999/xlink" width="30" height="30" viewBox="0 0 30 30">
<g>
	<line stroke-width="1" x1="" y1="" x2="" y2="" stroke="#449FDB" opacity=""></line>
</g>
	<path d="M5 21.998h20v-13.998h-20v13.998zM10.512 10.741c1.52 0 2.752 1.232 2.752 2.752s-1.232 2.751-2.752 2.751-2.751-1.231-2.751-2.751 1.232-2.752 2.751-2.752zM27.041 5h-24.052c-0.543 0-0.989 0.624-0.989 1.167v17.667c0 0.54 0.446 1.166 0.989 1.166h24.052c0.543 0 0.959-0.626 0.959-1.167v-17.666c0-0.543-0.416-1.167-0.959-1.167zM3.963 23l0.037-16h22l0.053 16h-22.090z" fill="#000000"></path>
</svg>

<?xml version="1.0" encoding="UTF-8" standalone="no"?>
<!-- Created with Inkscape (http://www.inkscape.org/) -->

<svg
   xmlns:dc="http://purl.org/dc/elements/1.1/"
   xmlns:cc="http://creativecommons.org/ns#"
   xmlns:rdf="http://www.w3.org/1999/02/22-rdf-syntax-ns#"
   xmlns:svg="http://www.w3.org/2000/svg"
   xmlns="http://www.w3.org/2000/svg"
   xmlns:inkscape="http://www.inkscape.org/namespaces/inkscape"
   version="1.1"
   width="30"
   height="30"
   viewBox="0 0 30 30"
   id="svg2">
  <metadata
     id="metadata10">
    <rdf:RDF>
      <cc:Work
         rdf:about="">
        <dc:format>image/svg+xml</dc:format>
        <dc:type
           rdf:resource="http://purl.org/dc/dcmitype/StillImage" />
      </cc:Work>
    </rdf:RDF>
  </metadata>
  <defs
     id="defs8" />
  <path
     d="M 5,21.998 H 25 V 8 H 5 v 13.998 z m 5.512,-11.257 c 1.52,0 2.752,1.24 2.752,2.76 0,1.52 -1.232,2.75 -2.752,2.75 -1.52,0 -2.75,-1.23 -2.75,-2.75 0,-1.52 1.23,-2.75 2.75,-2.75 z M 27.042,5 H 2.988 C 2.445,5 2,5.624 2,6.167 V 23.834 C 2,24.374 2.446,25 2.99,25 H 27.04 C 27.584,25 28,24.374 28,23.833 V 6.167 C 28,5.624 27.584,5 27.04,5 z M 3.96,23 4,7 h 22 l 0.053,16 H 3.963 z"
     inkscape:connector-curvature="0"
     id="path4" />
</svg>
